X:305
T:B305-  Maying Time
S:(1st/2)
Q:1/4=120
L:1/4
M:4/4
K:A dorian
d3/2 G/FG|A3/2 G/G2|AA/A/GA|B3/2 A/A2|\
BecG|FAGB|AcBd|^ced2|\
BBdd|AAc2|GGBB|FFA2|\
EEGB|AcB3/2 B/|AGFG|A3/2 G/G2|]

